src/img/icons/icons.svg

<svg width="0" height="0" class="hidden">
  <symbol fill="none" xmlns="http://www.w3.org/2000/svg" viewBox="0 0 67 67" id="google-plus">
    <circle cx="33.5" cy="33.5" r="33.5" fill="#D3E5FF"></circle>
    <path d="M44.3158 31.2804V27.5963H41.8596V31.2804H38.1754V33.7365H41.8596V37.4206H44.3158V33.7365H48V31.2804H44.3158ZM34.8596 35.4557L33.5087 34.4733C33.0175 34.1049 32.5263 33.6136 32.5263 32.754C32.5263 31.8944 33.1404 31.1576 33.7544 30.7892C35.3509 29.5611 36.9474 28.2103 36.9474 25.5086C36.9474 22.9297 35.3509 21.4561 34.4912 20.7193H36.5789L38.0526 19H30.4386C25.0351 19 22.3333 22.4385 22.3333 26.1226C22.3333 28.9471 24.5439 32.0172 28.4737 32.0172H29.4561C29.3333 32.3856 28.9649 32.9996 28.9649 33.6136C28.9649 34.8417 29.4561 35.3329 30.0702 36.0697C28.3509 36.1925 25.1579 36.5609 22.8246 38.0346C20.614 39.3854 20 41.2275 20 42.5783C20 45.4028 22.5789 48.1045 28.1053 48.1045C34.7368 48.1045 37.9299 44.4204 37.9299 40.8591C37.9298 38.2802 36.5789 36.9293 34.8596 35.4557ZM25.5263 24.2806C25.5263 21.5789 27.1228 20.3508 28.8421 20.3508C32.0351 20.3508 33.7544 24.649 33.7544 27.105C33.7544 30.2979 31.1754 30.912 30.193 30.912C27.1228 30.912 25.5263 27.105 25.5263 24.2806ZM29.9473 46.3852C25.8947 46.3852 23.3157 44.5432 23.3157 41.8415C23.3157 39.1398 25.7719 38.2801 26.5087 37.9117C28.1052 37.4205 30.1929 37.2977 30.5614 37.2977C30.9298 37.2977 31.1754 37.2977 31.421 37.2977C34.3684 39.3854 35.5964 40.245 35.5964 42.2099C35.5964 44.5432 33.2632 46.3852 29.9473 46.3852Z" fill="white"></path>
  </symbol>
  <symbol fill="none" xmlns="http://www.w3.org/2000/svg" viewBox="0 0 42 42" id="Profile">
    <path d="M20.9944 26.5555C13.4467 26.5555 6.99969 27.7455 6.99969 32.5055C6.99969 37.2673 13.4064 38.4993 20.9944 38.4993C28.5422 38.4993 34.9892 37.311 34.9892 32.5493C34.9892 27.7875 28.5842 26.5555 20.9944 26.5555Z" fill="#99BAED"></path>
    <path opacity="0.4" d="M20.9944 22.0215C26.1359 22.0215 30.2554 17.9003 30.2554 12.7605C30.2554 7.62076 26.1359 3.49951 20.9944 3.49951C15.8547 3.49951 11.7335 7.62076 11.7335 12.7605C11.7335 17.9003 15.8547 22.0215 20.9944 22.0215Z" fill="#A4A4A4"></path>
  </symbol>
  <symbol fill="none" xmlns="http://www.w3.org/2000/svg" viewBox="0 0 97 97" id="services-card-2">
    <g clip-path="url(#clip0_11_92)">
      <path d="M46.1062 38.4172L46.1062 33.8364L50.687 33.8364L50.687 38.4172L46.1062 38.4172Z" fill="#008FDD"></path>
      <path d="M46.7775 62.0411C46.3451 62.4735 46.1066 63.0487 46.1066 63.6602L46.107 72.2513C46.1066 72.8631 46.3451 73.4384 46.7775 73.8708C47.2102 74.3035 47.7851 74.5417 48.397 74.5413C49.0084 74.5413 49.5833 74.3032 50.0161 73.8704C50.4485 73.438 50.687 72.8628 50.687 72.2513L50.6874 63.6602C50.6874 63.0487 50.4492 62.4731 50.0168 62.0407C49.5841 61.608 49.0092 61.3698 48.397 61.3698C47.7851 61.3702 47.2102 61.6083 46.7775 62.0411Z" fill="#008FDD"></path>
      <path d="M54.6977 40.4214C54.6977 40.9752 54.4732 41.4767 54.1102 41.8396C53.7476 42.2022 53.2462 42.4267 52.6923 42.4267L44.1012 42.4271C43.5695 42.4271 43.0592 42.2159 42.6834 41.84C42.3071 41.4637 42.0959 40.9534 42.0959 40.4217L42.0963 33.8356L30.2839 33.836L30.2836 71.1775C30.2836 76.0161 32.1678 80.5647 35.5888 83.9857C38.5327 86.9297 42.3119 88.7341 46.3916 89.1806V93.9578C46.3916 95.0655 47.2893 95.9631 48.397 95.9631C48.9508 95.9631 49.4519 95.739 49.8148 95.376C50.1778 95.0131 50.4023 94.5116 50.4019 93.9582V89.1809C54.482 88.7341 58.2612 86.9297 61.2052 83.9857C64.6262 80.5647 66.51 76.0157 66.5104 71.1775V33.8356H54.6977L54.6977 40.4214ZM54.698 63.6602L54.6977 72.2513C54.6973 73.9339 54.0423 75.5165 52.8522 76.7065C51.6622 77.8966 50.08 78.552 48.397 78.552C46.714 78.552 45.1318 77.8966 43.9417 76.7065C42.7517 75.5165 42.0963 73.9343 42.0963 72.2513V63.6606C42.0963 61.9776 42.7517 60.3954 43.9417 59.2053C45.1322 58.0149 46.7143 57.3595 48.3973 57.3595C50.08 57.3599 51.6625 58.0149 52.8526 59.205C54.0423 60.3954 54.6977 61.9776 54.698 63.6602Z" fill="#008FDD"></path>
      <path d="M64.505 16.9389C63.3973 16.9389 62.4997 17.8365 62.4997 18.9443V21.2343L60.0672 21.2343V18.9443C60.0672 17.8365 59.1695 16.9389 58.0622 16.9385C56.9548 16.9389 56.0572 17.8365 56.0568 18.9439L56.0565 21.2343H53.6239V18.9443C53.6239 17.8365 52.7263 16.9389 51.619 16.9385C50.5116 16.9389 49.614 17.8365 49.6136 18.9439L49.6132 21.2343H47.1807V18.9435C47.1807 17.8365 46.2827 16.9385 45.1757 16.9385C44.068 16.9385 43.1704 17.8362 43.1704 18.9439L43.17 21.2343H40.7375L40.7371 18.9439C40.7375 17.8365 39.8395 16.9385 38.7321 16.9389C37.6244 16.9389 36.7268 17.8365 36.7268 18.9443V21.2343L34.2939 21.2346L34.2935 18.9443C34.2939 17.8369 33.3959 16.9389 32.2885 16.9393C31.1808 16.9393 30.2832 17.8369 30.2832 18.9446V23.2396C30.2836 23.24 30.2836 23.24 30.2836 23.2407V29.8257L66.5104 29.825L66.51 23.2404C66.51 23.2404 66.5104 23.24 66.5104 23.2392L66.51 18.9439C66.5104 17.8365 65.6124 16.9385 64.505 16.9389V16.9389Z" fill="#008FDD"></path>
    </g>
    <defs>
      <clipPath id="clip0_11_92">
        <rect width="68.4436" height="68.4436" fill="white" transform="translate(0 48.397) rotate(-45)"></rect>
      </clipPath>
    </defs>
  </symbol>
  <symbol fill="none" xmlns="http://www.w3.org/2000/svg" viewBox="0 0 42 42" id="Notification">
    <path d="M34.5966 20.3793C33.3183 18.8865 32.7374 17.5929 32.7374 15.395V14.6477C32.7374 11.7837 32.0782 9.93837 30.6451 8.09303C28.4363 5.22723 24.7177 3.5 21.0774 3.5H20.9227C17.3589 3.5 13.7569 5.14792 11.5098 7.8974C9.99833 9.77974 9.26263 11.7044 9.26263 14.6477V15.395C9.26263 17.5929 8.71997 18.8865 7.40336 20.3793C6.43459 21.4791 6.125 22.8926 6.125 24.4225C6.125 25.9541 6.62765 27.4046 7.63642 28.5838C8.95304 29.9973 10.8123 30.8996 12.7116 31.0565C15.4613 31.3701 18.211 31.4883 21.0009 31.4883C23.789 31.4883 26.5388 31.2909 29.2901 31.0565C31.1876 30.8996 33.047 29.9973 34.3635 28.5838C35.3707 27.4046 35.875 25.9541 35.875 24.4225C35.875 22.8926 35.5654 21.4791 34.5966 20.3793Z" fill="#99BAED"></path>
    <path opacity="0.4" d="M24.5152 33.6497C23.6403 33.4628 18.3095 33.4628 17.4346 33.6497C16.6868 33.8224 15.878 34.2242 15.878 35.1055C15.9215 35.9462 16.4137 36.6882 17.0955 37.1588L17.0937 37.1605C17.9756 37.8479 19.0104 38.2849 20.094 38.4419C20.6715 38.5212 21.2593 38.5177 21.8576 38.4419C22.9395 38.2849 23.9742 37.8479 24.8561 37.1605L24.8543 37.1588C25.5361 36.6882 26.0284 35.9462 26.0718 35.1055C26.0718 34.2242 25.2631 33.8224 24.5152 33.6497Z" fill="#AEAEAE"></path>
  </symbol>
  <symbol fill="none" xmlns="http://www.w3.org/2000/svg" viewBox="0 0 66 66" id="services-card-3">
    <path d="M7.73438 0V7.73438H5.80078V11.6016H21.2695V7.73438H19.3359V3.86719H28.2033L31.504 7.16783L34.2381 4.43373L29.8045 0H7.73438Z" fill="#008FDD"></path>
    <path d="M46.5352 52.3379C46.5352 53.4029 47.4019 54.2695 48.4688 54.2695C49.5338 54.2695 50.4023 53.4028 50.4023 52.3359C50.3853 51.743 49.581 50.0587 48.4688 48.1855C47.3546 50.0624 46.5502 51.7468 46.5352 52.3379Z" fill="#008FDD"></path>
    <path d="M58.2656 31.0664V27.1992H38.6719V31.0664H35.5431C32.2221 37.7764 30.9375 43.8484 30.9375 48.4688C30.9375 53.0846 32.219 59.2836 35.5431 66H61.3946C64.7155 59.2898 66 53.0891 66 48.4688C66 43.8529 64.7185 37.7828 61.3944 31.0664H58.2656ZM48.4688 58.1367C45.2701 58.1367 42.668 55.5346 42.668 52.3359C42.668 49.8642 45.6118 45.3361 46.8769 43.5026L48.4688 41.199L50.0606 43.5026C51.3257 45.3361 54.2695 49.8642 54.2695 52.3359C54.2695 55.5346 51.6674 58.1367 48.4688 58.1367Z" fill="#008FDD"></path>
    <path d="M38.6719 11.6016H58.2656V23.332H38.6719V11.6016Z" fill="#008FDD"></path>
    <path d="M11.6016 44.6035C11.6016 45.6684 12.4683 46.5352 13.5352 46.5352C14.6002 46.5352 15.4688 45.6684 15.4688 44.6016C15.4517 44.0086 14.6474 42.3243 13.5352 40.4512C12.421 42.328 11.6166 44.0125 11.6016 44.6035Z" fill="#008FDD"></path>
    <path d="M0 58.1367H27.0703V66H0V58.1367Z" fill="#008FDD"></path>
    <path d="M0 15.4688H27.0703V23.332H0V15.4688Z" fill="#008FDD"></path>
    <path d="M27.0703 27.1992H0V54.2695H27.0703V27.1992ZM13.5352 50.4023C10.3365 50.4023 7.73438 47.8002 7.73438 44.6016C7.73438 42.1298 10.6782 37.6017 11.9433 35.7683L13.5352 33.4646L15.127 35.7683C16.3921 37.6017 19.3359 42.1298 19.3359 44.6016C19.3359 47.8002 16.7338 50.4023 13.5352 50.4023V50.4023Z" fill="#008FDD"></path>
  </symbol>
  <symbol fill="none" xmlns="http://www.w3.org/2000/svg" viewBox="0 0 58 67" id="services-card-1">
    <path d="M10.0398 0.995251C5.73254 4.01129 4.59742 10.0079 7.61344 14.316L23.1238 36.4676L17.4831 44.5224C12.305 41.5232 5.6043 42.934 2.10818 47.9276C-1.58299 53.2009 -0.30203 60.4664 4.9702 64.1591C10.2427 67.8502 17.5097 66.5702 21.2024 61.2968C23.736 57.6782 23.9259 53.1203 22.0925 49.4242L29.0002 39.5584L35.9071 49.4233C34.0746 53.1194 34.2645 57.6771 36.7972 61.2959C40.4899 66.569 47.7562 67.8491 53.0285 64.1582C58.3016 60.4654 59.5826 53.1992 55.8914 47.9268C52.3953 42.9338 45.6946 41.5233 40.5165 44.5217L34.8758 36.4668L50.3852 14.3161C53.4022 10.008 52.2663 4.01141 47.9588 0.995368L29.0001 28.0745L10.0398 0.995251ZM17.7226 54.5865C17.7226 57.9231 15.0175 60.6283 11.6808 60.6283C8.3442 60.6283 5.63911 57.923 5.63911 54.5865C5.63911 51.2491 8.34419 48.5447 11.6808 48.5447C15.0175 48.5447 17.7226 51.2491 17.7226 54.5865ZM52.3618 54.5865C52.3618 57.9231 49.6567 60.6282 46.32 60.6282C42.9834 60.6282 40.2783 57.9231 40.2783 54.5865C40.2783 51.2491 42.9834 48.5447 46.32 48.5447C49.6566 48.5447 52.3618 51.249 52.3618 54.5865Z" fill="#008FDD"></path>
  </symbol>
  <symbol fill="none" xmlns="http://www.w3.org/2000/svg" viewBox="0 0 67 67" id="facebook">
    <circle cx="33.5" cy="33.5" r="33.5" fill="#99BAED"></circle>
    <path d="M39.5312 21.3096H43V15.2676C42.4016 15.1852 40.3434 15 37.9464 15C32.9451 15 29.5191 18.1461 29.5191 23.9284V29.25H24.0001V36.0045H29.5191V53H36.2857V36.0061H41.5815L42.4221 29.2516H36.2841V24.5982C36.2857 22.6459 36.8113 21.3096 39.5312 21.3096Z" fill="white"></path>
  </symbol>
  <symbol fill="none" xmlns="http://www.w3.org/2000/svg" viewBox="0 0 67 67" id="twitter">
    <circle cx="33.5" cy="33.5" r="33.5" fill="#D3E5FF"></circle>
    <path d="M49.6923 24.0484C48.5137 24.5654 47.2579 24.9081 45.9486 25.0744C47.2955 24.2702 48.3236 23.0065 48.8069 21.4833C47.5511 22.232 46.1645 22.7609 44.6869 23.056C43.4944 21.7864 41.7949 21 39.9409 21C36.3439 21 33.448 23.9197 33.448 27.4989C33.448 28.0139 33.4916 28.5091 33.5985 28.9805C28.197 28.7171 23.4174 26.1282 20.2066 22.1845C19.646 23.1571 19.3172 24.2703 19.3172 25.4686C19.3172 27.7188 20.476 29.7134 22.2032 30.8682C21.1593 30.8484 20.1353 30.5453 19.2677 30.068C19.2677 30.0878 19.2677 30.1135 19.2677 30.1393C19.2677 33.2966 21.5198 35.9192 24.4731 36.5233C23.9443 36.6679 23.3679 36.7372 22.7697 36.7372C22.3537 36.7372 21.9338 36.7134 21.5396 36.6263C22.3815 39.1993 24.7703 41.0909 27.6107 41.1523C25.4001 42.8816 22.5934 43.9234 19.5549 43.9234C19.0221 43.9234 18.511 43.8997 18 43.8343C20.8781 45.6903 24.2889 46.75 27.9672 46.75C39.9231 46.75 46.4597 36.8462 46.4597 28.2615C46.4597 27.9743 46.4497 27.697 46.4359 27.4217C47.7254 26.5065 48.8088 25.3636 49.6923 24.0484Z" fill="white"></path>
  </symbol>
</svg>

<?xml version="1.0" encoding="utf-8"?><svg viewBox="0 0 97 97" xmlns="http://www.w3.org/2000/svg" xmlns:xlink="http://www.w3.org/1999/xlink"><style>:root>svg{display:none}:root>svg:target{display:block}</style><svg fill="none" viewBox="0 0 42 42" id="Notification_" xmlns="http://www.w3.org/2000/svg"><path d="M34.597 20.38c-1.279-1.493-1.86-2.787-1.86-4.985v-.747c0-2.864-.659-4.71-2.092-6.555C28.436 5.227 24.718 3.5 21.077 3.5h-.154c-3.564 0-7.166 1.648-9.413 4.397-1.512 1.883-2.247 3.807-2.247 6.75v.748c0 2.198-.543 3.492-1.86 4.984-.968 1.1-1.278 2.514-1.278 4.043 0 1.532.503 2.983 1.511 4.162a7.931 7.931 0 005.076 2.473c2.75.313 5.499.431 8.289.431 2.788 0 5.538-.197 8.29-.431a7.93 7.93 0 005.073-2.473c1.007-1.18 1.511-2.63 1.511-4.162 0-1.53-.31-2.943-1.278-4.043z" fill="#99BAED"/><path opacity=".4" d="M24.515 33.65c-.875-.187-6.206-.187-7.08 0-.748.172-1.557.574-1.557 1.456.043.84.536 1.582 1.218 2.053l-.002.002a6.364 6.364 0 003 1.28c.578.08 1.165.077 1.764 0a6.364 6.364 0 002.998-1.28l-.002-.002c.682-.47 1.174-1.213 1.218-2.053 0-.882-.809-1.284-1.557-1.456z" fill="#AEAEAE"/></svg><svg fill="none" viewBox="0 0 42 42" id="Notification_1" xmlns="http://www.w3.org/2000/svg"><path d="M34.597 20.38c-1.279-1.493-1.86-2.787-1.86-4.985v-.747c0-2.864-.659-4.71-2.092-6.555C28.436 5.227 24.718 3.5 21.077 3.5h-.154c-3.564 0-7.166 1.648-9.413 4.397-1.512 1.883-2.247 3.807-2.247 6.75v.748c0 2.198-.543 3.492-1.86 4.984-.968 1.1-1.278 2.514-1.278 4.043 0 1.532.503 2.983 1.511 4.162a7.931 7.931 0 005.076 2.473c2.75.313 5.499.431 8.289.431 2.788 0 5.538-.197 8.29-.431a7.93 7.93 0 005.073-2.473c1.007-1.18 1.511-2.63 1.511-4.162 0-1.53-.31-2.943-1.278-4.043z" fill="#99BAED"/><path opacity=".4" d="M24.515 33.65c-.875-.187-6.206-.187-7.08 0-.748.172-1.557.574-1.557 1.456.043.84.536 1.582 1.218 2.053l-.002.002a6.364 6.364 0 003 1.28c.578.08 1.165.077 1.764 0a6.364 6.364 0 002.998-1.28l-.002-.002c.682-.47 1.174-1.213 1.218-2.053 0-.882-.809-1.284-1.557-1.456z" fill="#AEAEAE"/></svg><svg fill="none" viewBox="0 0 42 42" id="Profile_" xmlns="http://www.w3.org/2000/svg"><path d="M20.994 26.555C13.447 26.555 7 27.745 7 32.505c0 4.762 6.406 5.994 13.994 5.994 7.548 0 13.995-1.188 13.995-5.95 0-4.761-6.405-5.994-13.995-5.994z" fill="#99BAED"/><path opacity=".4" d="M20.994 22.021a9.228 9.228 0 009.261-9.26c0-5.14-4.12-9.261-9.26-9.261a9.23 9.23 0 00-9.262 9.26 9.229 9.229 0 009.261 9.261z" fill="#A4A4A4"/></svg><svg fill="none" viewBox="0 0 67 67" id="facebook" xmlns="http://www.w3.org/2000/svg"><circle cx="33.5" cy="33.5" r="33.5" fill="#99BAED"/><path d="M39.531 21.31H43v-6.042c-.598-.083-2.657-.268-5.054-.268-5 0-8.427 3.146-8.427 8.928v5.322H24v6.755h5.52V53h6.766V36.006h5.295l.841-6.754h-6.138v-4.654c.002-1.952.527-3.288 3.247-3.288z" fill="#fff"/></svg><svg fill="none" viewBox="0 0 67 67" id="google_+" xmlns="http://www.w3.org/2000/svg"><circle cx="33.5" cy="33.5" r="33.5" fill="#D3E5FF"/><path d="M44.316 31.28v-3.684H41.86v3.684h-3.685v2.456h3.685v3.685h2.456v-3.684H48V31.28h-3.684zm-9.456 4.176l-1.351-.983c-.492-.368-.983-.86-.983-1.719 0-.86.614-1.596 1.228-1.965 1.597-1.228 3.193-2.579 3.193-5.28 0-2.58-1.596-4.053-2.456-4.79h2.088L38.053 19h-7.614c-5.404 0-8.106 3.439-8.106 7.123 0 2.824 2.21 5.894 6.14 5.894h.983c-.123.369-.491.983-.491 1.597 0 1.228.491 1.719 1.105 2.456-1.72.123-4.912.49-7.245 1.965C20.614 39.385 20 41.228 20 42.578c0 2.825 2.579 5.526 8.105 5.526 6.632 0 9.825-3.684 9.825-7.245 0-2.579-1.351-3.93-3.07-5.403zM25.526 24.28c0-2.702 1.597-3.93 3.316-3.93 3.193 0 4.912 4.298 4.912 6.754 0 3.193-2.579 3.807-3.561 3.807-3.07 0-4.667-3.807-4.667-6.631zm4.421 22.104c-4.052 0-6.631-1.842-6.631-4.543 0-2.702 2.456-3.562 3.193-3.93 1.596-.492 3.684-.614 4.052-.614h.86c2.947 2.087 4.175 2.947 4.175 4.912 0 2.333-2.333 4.175-5.649 4.175z" fill="#fff"/></svg><svg fill="none" viewBox="0 0 58 67" id="services-card-1" xmlns="http://www.w3.org/2000/svg"><path d="M10.04.995c-4.307 3.016-5.443 9.013-2.427 13.321l15.51 22.152-5.64 8.054c-5.178-2.999-11.879-1.588-15.375 3.406C-1.583 53.2-.302 60.466 4.97 64.159c5.273 3.691 12.54 2.411 16.232-2.862a11.651 11.651 0 00.89-11.873L29 39.558l6.907 9.865a11.655 11.655 0 00.89 11.873c3.693 5.273 10.96 6.553 16.232 2.862 5.273-3.693 6.554-10.959 2.862-16.231-3.496-4.993-10.196-6.404-15.374-3.405l-5.641-8.055 15.51-22.15c3.016-4.309 1.88-10.306-2.427-13.322L29 28.075 10.04.995zm7.683 53.591a6.042 6.042 0 11-12.084 0 6.042 6.042 0 0112.084 0zm34.639 0a6.042 6.042 0 11-12.084 0 6.042 6.042 0 0112.084 0z" fill="#008FDD"/></svg><svg fill="none" viewBox="0 0 97 97" id="services-card-2" xmlns="http://www.w3.org/2000/svg"><g clip-path="url(#gclip0_11_92)" fill="#008FDD"><path d="M46.106 38.417v-4.58h4.581v4.58h-4.58zM46.778 62.041a2.275 2.275 0 00-.671 1.62v8.59c0 .612.238 1.187.67 1.62.433.433 1.008.67 1.62.67.611 0 1.186-.238 1.62-.67.431-.433.67-1.008.67-1.62v-8.59c0-.612-.238-1.188-.67-1.62a2.275 2.275 0 00-1.62-.671c-.612 0-1.187.238-1.62.671z"/><path d="M54.698 40.421a2 2 0 01-.588 1.419 2 2 0 01-1.418.587h-8.59a2.005 2.005 0 01-2.006-2.005v-6.586H30.284v37.341c0 4.84 1.884 9.388 5.305 12.809a17.975 17.975 0 0010.803 5.195v4.777a2.005 2.005 0 004.01 0v-4.777a17.978 17.978 0 0010.803-5.195 17.997 17.997 0 005.305-12.809V33.836H54.698v6.585zm0 23.24v8.59a6.261 6.261 0 01-1.846 4.456 6.259 6.259 0 01-4.455 1.845 6.26 6.26 0 01-4.455-1.846 6.26 6.26 0 01-1.846-4.455v-8.59a6.26 6.26 0 011.846-4.456 6.26 6.26 0 014.455-1.846c1.683 0 3.266.656 4.456 1.846a6.263 6.263 0 011.845 4.455zM64.505 16.939a2.005 2.005 0 00-2.005 2.005v2.29h-2.433v-2.29a2.006 2.006 0 00-4.01 0v2.29h-2.433v-2.29a2.006 2.006 0 10-4.01 0v2.29H47.18v-2.29a2.005 2.005 0 00-4.01 0l-.001 2.29h-2.433v-2.29a2.004 2.004 0 10-4.01 0v2.29h-2.433v-2.29a2.004 2.004 0 10-4.01 0V29.827l36.226-.001V18.944a2.004 2.004 0 00-2.005-2.005z"/></g><defs><clipPath id="gclip0_11_92"><path fill="#fff" transform="rotate(-45 58.42 24.198)" d="M0 0h68.444v68.444H0z"/></clipPath></defs></svg><svg fill="none" viewBox="0 0 66 66" id="services-card-3" xmlns="http://www.w3.org/2000/svg"><path d="M7.734 0v7.734H5.801v3.868H21.27V7.734h-1.934V3.867h8.867l3.301 3.3 2.734-2.733L29.805 0H7.735zM46.535 52.338a1.934 1.934 0 003.867-.002c-.017-.593-.821-2.277-1.933-4.15-1.114 1.876-1.919 3.56-1.934 4.152z" fill="#008FDD"/><path d="M58.266 31.066V27.2H38.672v3.867h-3.129c-3.32 6.71-4.605 12.782-4.605 17.403 0 4.616 1.281 10.815 4.605 17.531h25.852C64.715 59.29 66 53.09 66 48.469c0-4.616-1.281-10.686-4.606-17.403h-3.128zm-9.797 27.07a5.807 5.807 0 01-5.801-5.8c0-2.472 2.944-7 4.209-8.833l1.592-2.304 1.592 2.304c1.265 1.833 4.209 6.361 4.209 8.833 0 3.199-2.603 5.8-5.801 5.8zM38.672 11.602h19.594v11.73H38.672v-11.73zM11.602 44.603a1.935 1.935 0 003.867-.001c-.017-.593-.822-2.278-1.934-4.15-1.114 1.876-1.918 3.56-1.933 4.151zM0 58.137h27.07V66H0v-7.863zM0 15.469h27.07v7.863H0v-7.863z" fill="#008FDD"/><path d="M27.07 27.2H0v27.07h27.07V27.2zM13.535 50.401a5.807 5.807 0 01-5.8-5.8c0-2.472 2.943-7 4.208-8.834l1.592-2.303 1.592 2.303c1.265 1.834 4.209 6.362 4.209 8.834 0 3.198-2.602 5.8-5.8 5.8z" fill="#008FDD"/></svg><svg fill="none" viewBox="0 0 67 67" id="twitter" xmlns="http://www.w3.org/2000/svg"><circle cx="33.5" cy="33.5" r="33.5" fill="#D3E5FF"/><path d="M49.692 24.048c-1.178.517-2.434.86-3.743 1.026a6.46 6.46 0 002.858-3.59 12.985 12.985 0 01-4.12 1.572 6.495 6.495 0 00-11.239 4.443c0 .515.044 1.01.15 1.482-5.401-.264-10.18-2.853-13.391-6.797a6.541 6.541 0 00-.89 3.285 6.507 6.507 0 002.886 5.4 6.417 6.417 0 01-2.935-.801v.071c0 3.158 2.252 5.78 5.205 6.384a6.484 6.484 0 01-1.703.214c-.416 0-.836-.024-1.23-.11.841 2.572 3.23 4.464 6.07 4.525a13.055 13.055 0 01-8.055 2.771c-.533 0-1.044-.023-1.555-.089a18.291 18.291 0 009.967 2.916c11.956 0 18.493-9.904 18.493-18.488 0-.288-.01-.565-.024-.84a12.965 12.965 0 003.256-3.374z" fill="#fff"/></svg></svg>
